!!!COM: Palestrina, Giovanni Perluigi da
!!!OPR: Missa Ave Maria (1594)
!!!OTL: Benedictus
**kern	**kern	**kern	**kern
*Ibass	*Itenor	*Itenor	*Icalto
!Bassus	!Tenor 2	!Tenor 1	!Altus
*clefF4	*clefGv2	*clefGv2	*clefG2
*k[]	*k[]	*k[]	*k[]
*A:aeo	*A:aeo	*A:aeo	*A:aeo
*M4/2	*M4/2	*M4/2	*M4/2
=1	=1	=1	=1
0r	0r	0e	0r
=2	=2	=2	=2
0r	0r	1d	0r
.	.	1c	.
=3	=3	=3	=3
0r	0r	2.d	0a
.	.	4c	.
.	.	2A	.
.	.	[2c	.
=4	=4	=4	=4
0r	0r	2c]	1g
.	.	2B	.
.	.	1A	1f
=5	=5	=5	=5
0r	0r	2.G	2.g
.	.	4A	4f
.	.	4B	2d
.	.	4c	.
.	.	[2d	2f
=6	=6	=6	=6
0A	0r	2d]	2e
.	.	2c	4A
.	.	.	4B
.	.	4A	4c
.	.	4B	4d
.	.	4c	4e
.	.	4d	4f
=7	=7	=7	=7
1G	0r	2e	4g
.	.	.	4a
.	.	2d	4b
.	.	.	4g
1F	.	1f	4a
.	.	.	4b
.	.	.	[2cc
=8	=8	=8	=8
2.G	0r	2e	2cc]
.	.	2.d	2.b
4F	.	.	.
2D	.	.	.
.	.	4c	4a
2F	.	2A	[2a
=9	=9	=9	=9
1E	0e	1B	2a]
.	.	.	2g
2A	.	2.c	[1a
2A	.	.	.
.	.	4B	.
=10	=10	=10	=10
2F	1d	2A	2a]
2G	.	2B	4g
.	.	.	4f
1E	1c	1G	1g
=11	=11	=11	=11
2.D	2.d	1A	2.f
4E	4c	.	4g
4F	2A	1r	1a
4G	.	.	.
[2A	2c	.	.
=12	=12	=12	=12
2A]	1B	1r	0r
2G#	.	.	.
2A	[1A	[1e	.
[2c	.	.	.
=13	=13	=13	=13
4c]	1A]	1e]	1r
4B	.	.	.
4A	.	.	.
4G	.	.	.
4F	1r	1d	[1a
4E	.	.	.
2D	.	.	.
=14	=14	=14	=14
2.A	0e	2.c	1a]
8G	.	8B	.
8F	.	8A	.
2E	.	2B	1g
2C	.	2c	.
=15	=15	=15	=15
1D	1d	2A	1f
.	.	2d	.
1r	1c	2e	2.g
.	.	2e	.
.	.	.	8f
.	.	.	8e
=16	=16	=16	=16
0r	2.d	2f	2d
.	.	1a	1f
.	4c	.	.
.	2A	.	.
.	2c	[2g	[2e
=17	=17	=17	=17
0r	1B-	4g]	4e]
.	.	4f	4d
.	.	2d	1d
.	2A	1e	.
.	2e	.	2c#
=18	=18	=18	=18
1r	2f	2d	1d
.	1d	2f	.
[1A	.	1e	2.a
.	4c	.	.
.	4B	.	8g
.	.	.	8f
=19	=19	=19	=19
1A]	4c	2r	2e
.	4d	.	.
.	4e	2A	2c
.	4f	.	.
1G	2g	2B	2.d
.	2G	2B	.
.	.	.	4e
=20	=20	=20	=20
1F	2A	1c	4f
.	.	.	4g
.	2A	.	2.a
2.G	1B	2e	.
.	.	.	4g
.	.	[2d	2g
4F	.	.	.
=21	=21	=21	=21
2D	1d	4d]	2f
.	.	4c	.
2F	.	2A	1a
1E	1e	2B	.
.	.	2c#	2g
=22	=22	=22	=22
1D	0A	1d	1f
2r	.	[1c#	[1e
2A	.	.	.
=23	=23	=23	=23
2.A	2r	1c#]	1e]
.	2e	.	.
4A	.	.	.
2G	2.e	1r	1r
[2A	.	.	.
.	4e	.	.
=24	=24	=24	=24
4A]	2c	0r	0r
4B	.	.	.
4c	4e	.	.
4A	4f	.	.
2B	4g	.	.
.	4f	.	.
[2c	4e	.	.
.	4d	.	.
=25	=25	=25	=25
4c]	4e	2r	0r
4B	4d	.	.
1A	4c	2e	.
.	4B	.	.
.	2c	2.e	.
2G	2B	.	.
.	.	4e	.
=26	=26	=26	=26
2F	2A	2d	0r
4E	2B	2.e	.
4D	.	.	.
1C	2c	.	.
.	.	4f	.
.	2e	4g	.
.	.	4e	.
=27	=27	=27	=27
2D	2d	2f	1a
2E	4c	1e	.
.	4B	.	.
2.F	1A	.	2.a
.	.	2d	.
4F	.	.	4a
=28	=28	=28	=28
2E	2B	0e	2g
2A	1c	.	2.a
2.A	.	.	.
.	.	.	4b
.	2A	.	4cc
4A	.	.	4a
=29	=29	=29	=29
2G#	1e	2r	2b
2.A	.	2e	2.cc
.	1r	2.e	.
4B	.	.	4b
4c	.	.	[2a
4A	.	4e	.
=30	=30	=30	=30
2B	0r	1d	2a]
2B	.	.	2g#
1A	.	2.e	2a
.	.	.	2cc
.	.	4f	.
=31	=31	=31	=31
0r	2r	4g	2b
.	.	4e	.
.	2d	2.f	4a
.	.	.	4g
.	2.d	.	[1a
.	.	4e	.
.	.	4f	.
.	4d	4d	.
=32	=32	=32	=32
2r	2c	2e	2a]
2D	2.d	2f	2a
2.D	.	1d	[1a
.	4e	.	.
.	4f	.	.
4D	4d	.	.
=33	=33	=33	=33
2C#	2e	2r	1a]
2.D	2.f	2a	.
.	.	2.a	1r
4E	4e	.	.
4F	[2d	.	.
4D	.	4a	.
=34	=34	=34	=34
2E	2d]	1g	1r
2E	2c#	.	.
4D	2d	[1f	2r
4E	.	.	.
4F	2d	.	2a
4G	.	.	.
=35	=35	=35	=35
1A	2d	2f]	2.a
.	2c	2e	.
.	.	.	4a
2r	2B	2d	2g
2A	4A	2f	[2a
.	4B	.	.
=36	=36	=36	=36
2.A	4c	1e	4a]
.	4d	.	4b
.	4e	.	4cc
4A	4f	.	4a
2G	2e	2r	2b
[2A	2e	2e	[2cc
=37	=37	=37	=37
4A]	1A	2.e	4cc]
4B	.	.	4b
4c	.	.	1a
4A	.	4e	.
2B	1r	2d	.
[2c	.	[2e	2g
=38	=38	=38	=38
4c]	2r	4e]	2cc
4B	.	4f	.
2G	2d	4g	2b
.	.	4d	.
1A	2d	2f	2a
.	2c	2e	2cc
=39	=39	=39	=39
1D	1f	2.d	4b
.	.	.	4a
.	.	.	1a
.	.	4c	.
[1E	[1e	[1B	.
.	.	.	4g#
.	.	.	4f#
=40	=40	=40	=40
2E]	2e]	2B]	2g#
2E	2e	2B	2g#
1A	1e	1c#	1a
==	==	==	==
*-	*-	*-	*-
!!!CDT: 1525/^1526/-1594/2/2
!!!OCY: Italia
!!!AGN: Mass (Paraphrase)
!!!AST: renaissance, vocal
!!!ASW: Prayer
!!!PWK: Masses, Book 7
!!!RNB: Cadence finals: D
!!!YOR: Le Opere Complete, v. 23, p. 1
!!!YOO: Rome, Italy: Fratelli Scalera
!!!END: 1992//
!!!EED: John Miller
!!!YEC: Copyright 2000, John Miller
!!!YEN: United States of America
!!!YEM: Rights to all derivative electronic formats reserved.
!!!YEM: Refer to licensing agreement for further details.
!!!YEM: This file must be accompanied by the licensing agreement.
!!!YEM: A copy of the licensing agreement may be found at http://www.music-cog.ohio-state.edu/HumdrumDatabases/Palestrina/license.txt
!!!EMD: converted to Humdrum by Bret Aarden
